X:167
T: DER LENZ IST ANGEKOMMEN
N: B0200
O: Europa, Mitteleuropa, Deutschland
R: Jahreszeiten - Lied, Fruehling
M: 2/4
L: 1/16
K: G
D2 | G3AB2c2 | d4e4 | d4z2
D2 | G3AB2c2 | d4e4 | d4z2
B2 | A3BA2G2 | F3BA2
d2 | A3BA2G2 | F3BA2
D2 | G4z2A2 | B4z2c2 | d3ed2
B2 | c4d4 | B4z2

@@@ Tune index: 1970
